svgs/sharp-regular/h4.svg

<svg xmlns="http://www.w3.org/2000/svg" viewBox="0 0 640 512"><!--! Font Awesome Pro 6.6.0 by @fontawesome - https://fontawesome.com License - https://fontawesome.com/license (Commercial License) Copyright 2024 Fonticons, Inc. --><path d="M48 64l0 24 0 136 224 0 0-136 0-24 48 0 0 24 0 160 0 176 0 24-48 0 0-24 0-152L48 272l0 152 0 24L0 448l0-24L0 248 0 88 0 64l48 0zm592 0l0 24 0 336 0 24-48 0 0-24 0-120-200 0-29.5 0 6-28.9L412.5 64l49 0-40 192L592 256l0-168 0-24 48 0z"/></svg>

<svg xmlns="http://www.w3.org/2000/svg" viewBox="0 0 640 512"><!--! Font Awesome Pro 6.4.2 by @fontawesome - https://fontawesome.com License - https://fontawesome.com/license (Commercial License) Copyright 2023 Fonticons, Inc. --><path d="M48 64V88 224H272V88 64h48V88 248 424v24H272V424 272H48V424v24H0V424 248 88 64H48zm592 0V88 424v24H592V424 304H392 362.5l6-28.9L412.5 64h49l-40 192H592V88 64h48z"/></svg>
